common/src/main/resources/icons/plugins/datagrip/expui/userMapping.svg

<svg xmlns="http://www.w3.org/2000/svg" width="16" height="16" fill="#7986CB" data-big="true" viewBox="0 0 24 24"><path d="M16 9c2.33 0 7 1.17 7 3.5V15h-6v-2.5c0-1.5-.81-2.61-1.96-3.45zM8 9c2.33 0 7 1.17 7 3.5V15H1v-2.5C1 10.17 5.67 9 8 9m0-2a3 3 0 0 1-3-3 3 3 0 0 1 3-3 3 3 0 0 1 3 3 3 3 0 0 1-3 3m8 0a3 3 0 0 1-3-3 3 3 0 0 1 3-3 3 3 0 0 1 3 3 3 3 0 0 1-3 3m-7 9.75V19h6v-2.25L18.25 20 15 23.25V21H9v2.25L5.75 20z"/></svg>

<!--
  - The MIT License (MIT)
  -
  - Copyright (c) 2015-2024 Elior "Mallowigi" Boukhobza
  -
  - Permission is hereby granted, free of charge, to any person obtaining a copy
  - of this software and associated documentation files (the "Software"), to deal
  - in the Software without restriction, including without limitation the rights
  - to use, copy, modify, merge, publish, distribute, sublicense, and/or sell
  - copies of the Software, and to permit persons to whom the Software is
  - furnished to do so, subject to the following conditions:
  -
  - The above copyright notice and this permission notice shall be included in all
  - copies or substantial portions of the Software.
  -
  - THE SOFTWARE IS PROVIDED "AS IS", WITHOUT WARRANTY OF ANY KIND, EXPRESS OR
  - IMPLIED, INCLUDING BUT NOT LIMITED TO THE WARRANTIES OF MERCHANTABILITY,
  - FITNESS FOR A PARTICULAR PURPOSE AND NONINFRINGEMENT. IN NO EVENT SHALL THE
  - AUTHORS OR COPYRIGHT HOLDERS BE LIABLE FOR ANY CLAIM, DAMAGES OR OTHER
  - LIABILITY, WHETHER IN AN ACTION OF CONTRACT, TORT OR OTHERWISE, ARISING FROM,
  - OUT OF OR IN CONNECTION WITH THE SOFTWARE OR THE USE OR OTHER DEALINGS IN THE
  - SOFTWARE.
  -->


<svg data-big="true" xmlns="http://www.w3.org/2000/svg" version="1.1" width="16px" height="16px" fill="#7986CB"
     viewBox="0 0 24 24">
  <path
    d="M16,9C18.33,9 23,10.17 23,12.5V15H17V12.5C17,11 16.19,9.89 15.04,9.05L16,9M8,9C10.33,9 15,10.17 15,12.5V15H1V12.5C1,10.17 5.67,9 8,9M8,7A3,3 0 0,1 5,4A3,3 0 0,1 8,1A3,3 0 0,1 11,4A3,3 0 0,1 8,7M16,7A3,3 0 0,1 13,4A3,3 0 0,1 16,1A3,3 0 0,1 19,4A3,3 0 0,1 16,7M9,16.75V19H15V16.75L18.25,20L15,23.25V21H9V23.25L5.75,20L9,16.75Z"/>
</svg>
